X: 3753
T: Birds In The Tree, The
R: hornpipe
M: 4/4
K: Amajor
|:A/ (3Bcd|e2 f>c e>cc>e|d>cB>c A>A B/c/B/A/|F>BB>d c>AA>B|c/B/A/c/ e>g a>fe>c|
e>cf>c e>cc>e|d>cB>c A>A B/c/B/A/|F>BB>d c>ea>f|1 e>c Bc/B/ A3/2:|2 e>c Bc/B/ A2||
|:A>B|c/d/c/B/ c>e a>ga>c'|b/c'/b/a/ f>g a>fe>d|c/d/c/B/ c>e a>ga>c'|b/c'/b/a/ f>g a2 a>b|
(3c'aa a>c' b/c'/b/a/ f>g|a/b/a/g/ a/b/a/f/ e/f/e/c/ A2|E>AA>B c>ea>f|1 e>c Bc/B/ A2:|2 e>c Bc/B/ A3/2||

